priv/static/svgs/icons_new/other-crown.svg

<svg width="32" height="32" viewBox="0 0 32 32" fill="none" xmlns="http://www.w3.org/2000/svg">
<path d="M11.1303 14.7511L12.1391 12.8311L13.763 14.605M21.0524 14.7511L20.098 12.7252L18.2958 14.8103M8.91286 20.9936H23.0873M22.7394 23.5L24.7765 13.7625C25.0707 13.6377 25.3298 13.4458 25.5319 13.203C25.7339 12.9602 25.873 12.6736 25.9374 12.3675C26.1983 11.2794 25.62 10.1638 24.6482 9.87172C23.6764 9.57959 22.6742 10.221 22.4133 11.3091C22.3371 11.6258 22.3318 11.9548 22.3978 12.2737C22.4639 12.5926 22.5996 12.8939 22.796 13.1571L19.1784 16.8552L17.0262 12.2214C17.2821 12.0163 17.4868 11.7573 17.625 11.464C17.7632 11.1706 17.8312 10.8506 17.8241 10.5279C17.8241 9.41236 17.0066 8.5 16.0001 8.5C14.9935 8.5 14.1761 9.41236 14.1761 10.5364C14.1689 10.8591 14.237 11.1791 14.3752 11.4724C14.5134 11.7658 14.7181 12.0247 14.9739 12.2299L12.8217 16.8637L9.20418 13.1571C9.40174 12.8928 9.53823 12.5901 9.60427 12.2696C9.67032 11.9492 9.66436 11.6186 9.5868 11.3006C9.32592 10.2125 8.32588 9.56901 7.35194 9.85902C6.37799 10.149 5.80188 11.2752 6.06276 12.3633C6.12678 12.6695 6.26573 12.9563 6.46783 13.1991C6.66993 13.442 6.92921 13.6338 7.22367 13.7583L9.2607 23.4958H22.7394V23.5Z" stroke="black" stroke-linecap="round" stroke-linejoin="round"/>
</svg>

<svg width="32" height="32" viewBox="0 0 32 32" fill="none" xmlns="http://www.w3.org/2000/svg">
  <symbol id="item" viewBox="0 0 32 32" stroke-width="1" fill="none">
    <path d="m11.13 14.751 1.01-1.92 1.623 1.774m7.29.146-.955-2.026-1.802 2.085m-9.383 6.184h14.174M22.74 23.5l2.037-9.738c.295-.124.554-.316.756-.559.202-.243.341-.53.405-.835.261-1.089-.317-2.204-1.289-2.496-.972-.292-1.974.349-2.235 1.437a2.208 2.208 0 0 0 .383 1.848l-3.618 3.698-2.152-4.634c.256-.205.46-.464.599-.757.138-.293.206-.613.2-.936 0-1.116-.818-2.028-1.825-2.028-1.007 0-1.824.912-1.824 2.036-.007.323.061.643.2.936.137.294.342.553.598.758l-2.152 4.634-3.618-3.707a2.207 2.207 0 0 0 .383-1.857C9.326 10.214 8.326 9.57 7.352 9.86c-.974.29-1.55 1.416-1.29 2.504.065.306.204.593.406.836.202.243.461.435.756.56l2.037 9.737h13.478v.004Z" stroke="currentColor" stroke-linecap="round" stroke-linejoin="round"/>
  </symbol>
</svg>
